src/img/gulp.svg

<svg width="38" height="38" viewBox="0 0 38 38" fill="none" xmlns="http://www.w3.org/2000/svg">
<path d="M23.473 30.7543L24.4537 29.0352C24.4537 29.0352 22.227 29.9725 18.5014 29.9725C14.7727 29.9725 12.5798 29.0717 12.5798 29.0717L13.6763 30.9478L14.0649 36.8614C14.0649 37.5005 16.0911 38 18.5924 38C21.0951 38 23.1229 37.502 23.1229 36.8614L23.4761 30.7797V30.7543H23.473ZM24.4214 19.5804C23.2355 19.6534 22.6434 21.0124 22.0481 22.4429C21.8276 22.9662 21.0766 25.1975 20.5862 24.9215C20.0959 24.6472 21.2231 22.814 21.5408 21.7229C21.1753 21.9988 19.8368 23.0693 19.4914 22.0638C18.9393 22.5618 17.7504 22.8251 17.8845 21.5421C17.59 22.0892 16.9269 22.8473 16.1281 22.5158C15.0903 22.1114 16.7373 18.6923 17.1459 18.8573C17.5561 19.0492 17.0642 19.8088 16.9362 20.1164C16.6494 20.7809 16.3224 21.6357 16.543 21.8022C16.913 22.1098 17.937 20.6873 17.9601 20.662C18.1513 20.4003 18.6988 18.713 19.1367 18.9064C19.5762 19.1189 18.0403 21.3502 18.6124 21.8022C18.7296 21.8973 19.203 21.7546 19.4898 21.4232C19.6749 21.2329 19.6101 20.7571 20.2285 19.2379C20.8515 17.7171 21.4066 15.8188 21.8307 15.9615C22.2548 16.1042 21.9063 17.0764 21.752 17.457C21.0365 19.1665 19.7967 21.9671 20.3796 21.7546C20.9563 21.5405 21.257 21.5405 21.8338 20.8523C22.4105 20.164 22.3658 19.0254 22.7575 19.0492C23.1276 19.0714 23.0813 19.452 22.9888 19.712C23.3589 19.2839 24.7652 18.3355 25.0906 19.2617C25.4823 20.3527 23.0798 21.9449 23.6812 21.8498C24.2594 21.7784 25.2047 21.1615 25.6211 20.5922L26.7298 10.2842C26.7298 10.2842 25.598 11.2357 18.4628 11.2357C11.3277 11.2357 10.3146 10.3096 10.3146 10.3096L11.2598 19.7136C11.7687 18.242 12.9684 15.2511 14.8405 15.3684C15.6948 15.416 16.8498 17.1271 15.8552 17.1747C15.4388 17.1985 15.3926 16.3199 14.9084 16.201C14.5398 16.128 14.0541 16.4151 13.7318 16.7481C13.1088 17.3888 11.7209 19.9293 11.906 21.19C12.1373 22.8044 14.0757 20.6413 14.3995 20.0007C14.6293 19.5519 14.7912 18.196 15.2754 18.3387C15.7843 18.4814 15.2307 19.8833 14.859 21.0933C14.4427 22.4714 14.236 23.9177 13.7302 23.7512C13.2213 23.5863 14.0525 21.8054 14.0047 21.4961C13.522 21.9703 12.6431 23.1137 11.4896 22.5412L12.0663 28.4072C12.0663 28.4072 13.6377 29.6648 18.3472 29.6648C23.0566 29.6648 24.6974 28.4072 24.6974 28.4072L25.436 21.6151C24.8362 22.2335 22.9425 23.3008 22.8269 22.0908C22.7359 21.1171 24.8824 19.7152 24.3288 19.6898L24.4214 19.5804ZM26.8501 0.999082L22.7498 5.43945L22.0003 8.45413C24.9009 8.64444 26.918 9.06627 26.918 9.55471C26.918 10.2192 23.1954 10.7552 18.6047 10.7552C14.014 10.7552 10.293 10.2113 10.293 9.5452C10.293 8.88073 14.0155 8.33361 18.6062 8.33361C19.2585 8.33361 19.9077 8.33361 20.5554 8.35898L21.4205 4.7496L25.7768 0L26.8501 0.999082Z" fill="#272727"/>
</svg>

<svg width="38" height="38" viewBox="0 0 38 38" fill="none" xmlns="http://www.w3.org/2000/svg"><path d="M23.473 30.754l.98-1.719s-2.226.938-5.952.938c-3.728 0-5.921-.901-5.921-.901l1.096 1.876.389 5.913c0 .64 2.026 1.139 4.527 1.139 2.503 0 4.53-.498 4.53-1.139l.354-6.081v-.026h-.003zm.948-11.174c-1.186.073-1.778 1.432-2.373 2.863-.22.523-.971 2.755-1.462 2.479-.49-.275.637-2.108.955-3.2-.366.277-1.704 1.347-2.05.342-.552.498-1.74.761-1.607-.522-.294.547-.957 1.305-1.756.974-1.038-.405.61-3.824 1.018-3.659.41.192-.082.952-.21 1.26-.287.664-.614 1.519-.393 1.685.37.308 1.394-1.115 1.417-1.14.191-.262.739-1.949 1.177-1.756.44.213-1.097 2.444-.525 2.896.118.095.591-.047.878-.379.185-.19.12-.666.739-2.185.623-1.52 1.178-3.42 1.602-3.277.424.143.075 1.115-.079 1.496-.715 1.71-1.955 4.51-1.372 4.298.576-.214.877-.214 1.454-.903.576-.688.532-1.827.924-1.803.37.022.323.403.23.663.37-.428 1.777-1.377 2.103-.45.391 1.09-2.011 2.683-1.41 2.588.578-.072 1.524-.689 1.94-1.258l1.109-10.308s-1.132.952-8.267.952-8.148-.926-8.148-.926l.945 9.404c.509-1.472 1.708-4.463 3.58-4.346.855.048 2.01 1.76 1.015 1.807-.416.023-.462-.855-.947-.974-.368-.073-.854.214-1.176.547-.623.64-2.011 3.181-1.826 4.442.231 1.614 2.17-.549 2.493-1.19.23-.448.392-1.804.876-1.661.51.142-.044 1.544-.416 2.754-.416 1.378-.623 2.825-1.129 2.658-.509-.165.322-1.946.275-2.255-.483.474-1.362 1.618-2.515 1.045l.576 5.866s1.572 1.258 6.281 1.258c4.71 0 6.35-1.258 6.35-1.258l.739-6.792c-.6.619-2.494 1.686-2.61.476-.09-.974 2.056-2.376 1.503-2.401l.092-.11zM26.851 1L22.75 5.44 22 8.453c2.9.19 4.918.612 4.918 1.1 0 .665-3.723 1.201-8.313 1.201-4.591 0-8.312-.544-8.312-1.21 0-.664 3.723-1.211 8.313-1.211.652 0 1.302 0 1.95.025l.864-3.61L25.777 0l1.073 1z" fill="#272727"/></svg>
